X:1
T:Gavotta
T:Sergei Prokofiev
T:Gavotta
T:Symphony no. 1, 3rd Mvt, First Section - Piano Reduction
T:Harmonic Analysis
T:Copyright © 
T:Copyright © 
C:Sergei Prokofiev
Z:Copyright ©
%%score { ( 1 3 ) | 2 }
L:1/8
Q:1/4=120
M:4/4
K:C
V:1 treble nm="Piano" snm="Pno."
V:3 treble 
V:2 bass 
V:1
"_C Lydian:""_V" AG^FG |"_I (VII/ii)" !>![eg]2 [EG]2"_VI/ii6" [_B=f]2 [D=F]2 | %2
"_V/ii46""_A:""_I64" [A^ce]2 [^CE]2 (A2 c2) |"_V/vi⁷""_V7" !>!B^cde ^f2 ^g2 | %4
"_VI/vi (IV)" a2 =f2 !>!=c'2 (!tenuto!b!tenuto!a) |:"_C:""_I" ([eg]f)"^a" [Ge]2"_V" [Bd]2 [bd']2 | %6
"_vi" .[EAc]2 .[gc']2 !>!e2 (!tenuto!d!tenuto!c) | %7
"_iii (v/vi)" ([GB]A)"^a" [B,G]2"_V/iii"!>(! .[^D^F]2 .[^d^f]2!>)! | %8
"_VI/iii (I)" .[G,E]2 .[ce]2!mf!"_V" .G2 .G2 | %9
"_I" (cBc)"^b"!tenuto!d!<(! .e2!<)!"_B:""_Ger""_V7" [Bdf]2 | %10
"_I64"!>(! (^f2 ^d2)!>)!"_I" (.B2 .B2) | %11
"_V""_B Lydian:"!f!!<(! (^f^e"^b"f)!tenuto!^g .^a2!<)!"_C:""_Ger""_V⁷" [=d=fb]2 |1 %12
"_I" !>![=ec']2 z2 !>!c'2 (!tenuto!b!tenuto!=a) :|2!ff!"_I" !>![ec']2 z6 |] %14
V:2
!f! z4 | !>![C,,C,]2 [E,G,C]2 [D,,D,]2 [F,_B,]2 | [E,,E,]2 A,2 z4 | %3
 !>![E,,E,]2 [=B,,^F,=B,]2 z2 [E,,E,]2 | [=F,,=F,]4 z4 |: C,,2 [C,G,]2 [G,,,G,,]2 [G,D]2 | %6
 .[A,,,A,,]2 .[E,A,C]2 z4 | E,,2 [E,G,]2 .[B,,,B,,]2 .[^D,A,]2 | %8
 .[C,,C,]2 .[E,G,]2 .[G,,G,]2 .[G,,G,]2 | C,B,,C,!tenuto!D, .E,2 [G,,G,]2 | %10
!f! [^F,,^F,]4 .B,,2 .B,,2 | ^F,^E,F,!tenuto!^G, ^A,2 .[=G,,=G,]2 |1!ff! !>![C,,C,]2 z2!f! z4 :|2 %13
 !>![C,,C,]2 z6 |] %14
V:3
 x4 | x8 | x4 (^C2 E2) | DE^F^G A2 [Bd]2 | [A=c]4 x4 |: x8 | x8 | x8 | x8 | x8 | [^DB]4 x4 | x8 |1 %12
 x8 :|2 x8 |] %14

